X: 1
T: Fiddichside Lasses
C: William Marshall
N: Skye p.28
M: C
L: 1/8
K: AMix
c/d/ \
| "A"e<A e>c eA Ac/d/ | e<A e>c "G"dG Gc/d/ \
| "A"e<A e>c e<A e>c | "G"B>g d>g B<G G :|
|: B \
| "A"A>a "G"g/a/b "A"a>c e>c | "A"A>a "G"g/a/b "G"g>B d>B \
| "A"A>a "G"g/a/b "A"a>f g>e | "D"f>d "C"e=c "G"d<G G :|

%%sep 1 1 500

